build/images/rating-4.svg

<svg width="167" height="27" viewBox="0 0 167 27" fill="none" xmlns="http://www.w3.org/2000/svg">
<path d="M12.0853 3.2131C12.3851 2.29282 13.687 2.29282 13.9869 3.2131L15.738 8.58749C15.8721 8.99912 16.2559 9.2777 16.6888 9.2777H22.3495C23.3189 9.2777 23.7213 10.5187 22.9363 11.0875L18.3614 14.4021C18.0099 14.6568 17.8628 15.1091 17.9973 15.5217L19.7459 20.8884C20.0459 21.8092 18.9926 22.5762 18.2084 22.0079L13.6228 18.6856C13.2728 18.432 12.7994 18.432 12.4494 18.6856L7.86382 22.0079C7.07956 22.5762 6.02627 21.8092 6.3263 20.8884L8.07487 15.5217C8.20932 15.1091 8.06224 14.6568 7.71078 14.4021L3.13591 11.0875C2.3509 10.5187 2.75323 9.2777 3.72263 9.2777H9.38338C9.81631 9.2777 10.2001 8.99912 10.3342 8.58749L12.0853 3.2131Z" fill="#070707"/>
<path d="M47.1822 3.2131C47.4821 2.29282 48.784 2.29282 49.0838 3.2131L50.8349 8.58749C50.969 8.99912 51.3528 9.2777 51.7857 9.2777H57.4465C58.4159 9.2777 58.8182 10.5187 58.0332 11.0875L53.4583 14.4021C53.1069 14.6568 52.9598 15.1091 53.0942 15.5217L54.8428 20.8884C55.1428 21.8092 54.0895 22.5762 53.3053 22.0079L48.7197 18.6856C48.3697 18.432 47.8963 18.432 47.5463 18.6856L42.9607 22.0079C42.1765 22.5762 41.1232 21.8092 41.4232 20.8884L43.1718 15.5217C43.3062 15.1091 43.1592 14.6568 42.8077 14.4021L38.2328 11.0875C37.4478 10.5187 37.8502 9.2777 38.8196 9.2777H44.4803C44.9132 9.2777 45.297 8.99912 45.4311 8.58749L47.1822 3.2131Z" fill="#070707"/>
<path d="M82.2794 3.2131C82.5792 2.29282 83.8811 2.29282 84.181 3.2131L85.9321 8.58749C86.0662 8.99912 86.45 9.2777 86.8829 9.2777H92.5436C93.513 9.2777 93.9154 10.5187 93.1304 11.0875L88.5555 14.4021C88.204 14.6568 88.0569 15.1091 88.1914 15.5217L89.94 20.8884C90.24 21.8092 89.1867 22.5762 88.4024 22.0079L83.8169 18.6856C83.4669 18.432 82.9935 18.432 82.6435 18.6856L78.0579 22.0079C77.2737 22.5762 76.2204 21.8092 76.5204 20.8884L78.269 15.5217C78.4034 15.1091 78.2563 14.6568 77.9049 14.4021L73.33 11.0875C72.545 10.5187 72.9473 9.2777 73.9167 9.2777H79.5775C80.0104 9.2777 80.3942 8.99912 80.5283 8.58749L82.2794 3.2131Z" fill="#070707"/>
<path d="M117.377 3.2131C117.676 2.29282 118.978 2.29282 119.278 3.2131L121.029 8.58749C121.163 8.99912 121.547 9.2777 121.98 9.2777H127.641C128.61 9.2777 129.013 10.5187 128.228 11.0875L123.653 14.4021C123.301 14.6568 123.154 15.1091 123.289 15.5217L125.037 20.8884C125.337 21.8092 124.284 22.5762 123.5 22.0079L118.914 18.6856C118.564 18.432 118.091 18.432 117.741 18.6856L113.155 22.0079C112.371 22.5762 111.318 21.8092 111.618 20.8884L113.366 15.5217C113.501 15.1091 113.354 14.6568 113.002 14.4021L108.427 11.0875C107.642 10.5187 108.044 9.2777 109.014 9.2777H114.675C115.108 9.2777 115.491 8.99912 115.625 8.58749L117.377 3.2131Z" fill="#070707"/>
<path d="M152.474 3.2131C152.774 2.29282 154.075 2.29282 154.375 3.2131L156.126 8.58749C156.261 8.99912 156.644 9.2777 157.077 9.2777H162.738C163.707 9.2777 164.11 10.5187 163.325 11.0875L158.75 14.4021C158.398 14.6568 158.251 15.1091 158.386 15.5217L160.134 20.8884C160.434 21.8092 159.381 22.5762 158.597 22.0079L154.011 18.6856C153.661 18.432 153.188 18.432 152.838 18.6856L148.252 22.0079C147.468 22.5762 146.415 21.8092 146.715 20.8884L148.463 15.5217C148.598 15.1091 148.451 14.6568 148.099 14.4021L143.524 11.0875C142.739 10.5187 143.142 9.2777 144.111 9.2777H149.772C150.205 9.2777 150.588 8.99912 150.723 8.58749L152.474 3.2131Z" fill="#E5E5E5"/>
</svg>

<svg width="167" height="27" fill="none" xmlns="http://www.w3.org/2000/svg"><path d="M12.085 3.213c.3-.92 1.602-.92 1.902 0l1.751 5.374a1 1 0 00.95.69h5.662c.969 0 1.371 1.242.586 1.81l-4.575 3.315a1 1 0 00-.364 1.12l1.749 5.366c.3.921-.753 1.688-1.538 1.12l-4.585-3.322a1 1 0 00-1.174 0l-4.585 3.322c-.784.568-1.838-.199-1.538-1.12l1.749-5.366a1 1 0 00-.364-1.12l-4.575-3.314c-.785-.57-.383-1.81.587-1.81h5.66a1 1 0 00.951-.69l1.751-5.375zm35.097 0c.3-.92 1.602-.92 1.902 0l1.75 5.374a1 1 0 00.952.69h5.66c.97 0 1.372 1.242.587 1.81l-4.575 3.315a1 1 0 00-.364 1.12l1.749 5.366c.3.921-.754 1.688-1.538 1.12l-4.585-3.322a1 1 0 00-1.174 0l-4.585 3.322c-.785.568-1.838-.199-1.538-1.12l1.749-5.366a1 1 0 00-.364-1.12l-4.575-3.314c-.785-.57-.383-1.81.587-1.81h5.66a1 1 0 00.951-.69l1.751-5.375zm35.098 0c.3-.92 1.601-.92 1.901 0l1.751 5.374a1 1 0 00.95.69h5.662c.969 0 1.371 1.242.586 1.81l-4.575 3.315a1 1 0 00-.364 1.12l1.749 5.366c.3.921-.753 1.688-1.538 1.12l-4.585-3.322a1 1 0 00-1.173 0l-4.586 3.322c-.784.568-1.838-.199-1.538-1.12l1.749-5.366a1 1 0 00-.364-1.12l-4.575-3.314c-.785-.57-.383-1.81.587-1.81h5.66a1 1 0 00.951-.69l1.751-5.375zm35.097 0c.299-.92 1.601-.92 1.901 0l1.751 5.374a1 1 0 00.951.69h5.661c.969 0 1.372 1.242.587 1.81l-4.575 3.315a.998.998 0 00-.364 1.12l1.748 5.366c.3.921-.753 1.688-1.537 1.12l-4.586-3.322a1 1 0 00-1.173 0l-4.586 3.322c-.784.568-1.837-.199-1.537-1.12l1.748-5.366a.998.998 0 00-.364-1.12l-4.575-3.314c-.785-.57-.383-1.81.587-1.81h5.661a.999.999 0 00.95-.69l1.752-5.375z" fill="#070707"/><path d="M152.474 3.213c.3-.92 1.601-.92 1.901 0l1.751 5.374a1 1 0 00.951.69h5.661c.969 0 1.372 1.242.587 1.81l-4.575 3.315a.998.998 0 00-.364 1.12l1.748 5.366c.3.921-.753 1.688-1.537 1.12l-4.586-3.322a1 1 0 00-1.173 0l-4.586 3.322c-.784.568-1.837-.199-1.537-1.12l1.748-5.366a.998.998 0 00-.364-1.12l-4.575-3.314c-.785-.57-.382-1.81.587-1.81h5.661c.433 0 .816-.279.951-.69l1.751-5.375z" fill="#E5E5E5"/></svg>
